X:1
T:Fulko Aankhama (variant)
C:Traditional (Nepali)
M:4/4
L:1/16
Q:1/4=100
K:C
c2 c A c2 d2 e8 | e d e2 f2 e2 d8 | d4 c2 A2 c2 d2 e4 | d2 d c d e d2 c8 |
g2 g2 e2 g2 a4 a4 | g2 g2 f2 e2 d8 | d4 c2 A2 c2 d2 e4 | d2 d c d e d2 c8 |
c2 c A c2 d2 e8 | e d e2 f2 e2 d8 | d4 c2 A2 c2 d2 e4 | d2 d c d e d2 c8 |
d2 d c d e d2 c8 |
c2 c A c2 d2 e8 | e d e2 f2 e2 d8 | d4 c2 A2 c2 d2 e4 | d2 d c d e d2 c8 |]
